src/assets/filled/SliderHorizontal.svg

<svg width="24" height="24" viewBox="0 0 24 24"  xmlns="http://www.w3.org/2000/svg">
<path d="M9 22H15C16.66 22 18 20.66 18 19V5C18 3.34 16.66 2 15 2H9C7.34 2 6 3.34 6 5V19C6 20.66 7.34 22 9 22Z" />
<path d="M4.5 5.93021V18.0702C4.5 18.3902 4.21 18.6202 3.9 18.5602C2.42 18.2902 2 17.4302 2 15.3302V8.67021C2 6.57021 2.42 5.71021 3.9 5.44021C4.21 5.38021 4.5 5.61021 4.5 5.93021Z" />
<path d="M22 8.67021V15.3302C22 17.4302 21.58 18.2902 20.1 18.5602C19.79 18.6202 19.5 18.3802 19.5 18.0702V5.93021C19.5 5.61021 19.79 5.38021 20.1 5.44021C21.58 5.71021 22 6.57021 22 8.67021Z" />
</svg>

<?xml version="1.0" encoding="UTF-8"?>
<svg width="24" height="24" viewBox="0 0 24 24" xmlns="http://www.w3.org/2000/svg">
 <path d="m9 22h6c1.66 0 3-1.34 3-3v-14c0-1.66-1.34-3-3-3h-6c-1.66 0-3 1.34-3 3v14c0 1.66 1.34 3 3 3z"/>
 <path d="m4.5 5.9302v12.14c0 0.32-0.29 0.55-0.6 0.49-1.48-0.27-1.9-1.13-1.9-3.23v-6.66c0-2.1 0.42-2.96 1.9-3.23 0.31-0.06 0.6 0.17 0.6 0.49z"/>
 <path d="m22 8.6702v6.66c0 2.1-0.42 2.96-1.9 3.23-0.31 0.06-0.6-0.18-0.6-0.49v-12.14c0-0.32 0.29-0.55 0.6-0.49 1.48 0.27 1.9 1.13 1.9 3.23z"/>
</svg>
